public/images/landing/logo_big.svg

<svg width="98" height="50" viewBox="0 0 98 50" fill="none" xmlns="http://www.w3.org/2000/svg">
<path d="M33.0002 48.9998L17.1669 17.1665L17.0002 48.9998H33.0002Z" fill="#38ADA9" stroke="white" stroke-width="1.6"/>
<path fill-rule="evenodd" clip-rule="evenodd" d="M17 33C20.1645 33 23.2579 32.0616 25.8891 30.3035C28.5203 28.5454 30.571 26.0465 31.782 23.1229C32.993 20.1993 33.3099 16.9822 32.6925 13.8785C32.0752 10.7749 30.5513 7.92393 28.3137 5.68629C26.076 3.44866 23.2251 1.92481 20.1214 1.30744C17.0177 0.69008 13.8007 1.00693 10.8771 2.21793C7.95344 3.42893 5.45459 5.47969 3.69648 8.11087C1.93838 10.7421 1 13.8355 1 17V49H17V33Z" fill="#1F658A"/>
<path d="M17 33L17 32.2L16.2 32.2V33H17ZM25.8891 30.3035L25.4446 29.6383L25.8891 30.3035ZM31.782 23.1229L32.5211 23.4291L32.5211 23.4291L31.782 23.1229ZM32.6925 13.8785L33.4772 13.7225L33.4772 13.7225L32.6925 13.8785ZM28.3137 5.68629L27.748 6.25198L27.748 6.25198L28.3137 5.68629ZM20.1214 1.30744L20.2775 0.522815L20.2775 0.522814L20.1214 1.30744ZM10.8771 2.21793L11.1832 2.95704L11.1832 2.95704L10.8771 2.21793ZM3.69648 8.11087L4.36166 8.55533L4.36166 8.55533L3.69648 8.11087ZM1 49H0.2V49.8H1V49ZM17 49V49.8H17.8V49H17ZM17 33.8C20.3227 33.8 23.5708 32.8147 26.3336 30.9687L25.4446 29.6383C22.945 31.3085 20.0063 32.2 17 32.2L17 33.8ZM26.3336 30.9687C29.0963 29.1227 31.2496 26.4989 32.5211 23.4291L31.0429 22.8168C29.8925 25.5942 27.9443 27.9681 25.4446 29.6383L26.3336 30.9687ZM32.5211 23.4291C33.7927 20.3593 34.1254 16.9814 33.4772 13.7225L31.9079 14.0346C32.4944 16.9831 32.1934 20.0393 31.0429 22.8168L32.5211 23.4291ZM33.4772 13.7225C32.8289 10.4636 31.2289 7.47013 28.8794 5.12061L27.748 6.25198C29.8737 8.37774 31.3214 11.0861 31.9079 14.0346L33.4772 13.7225ZM28.8794 5.12061C26.5298 2.77109 23.5364 1.17105 20.2775 0.522815L19.9654 2.09207C22.9139 2.67857 25.6222 4.12622 27.748 6.25198L28.8794 5.12061ZM20.2775 0.522814C17.0186 -0.125417 13.6407 0.207278 10.5709 1.47883L11.1832 2.95704C13.9606 1.80659 17.0168 1.50558 19.9654 2.09207L20.2775 0.522814ZM10.5709 1.47883C7.50111 2.75038 4.87731 4.90367 3.03131 7.66642L4.36166 8.55533C6.03186 6.05571 8.40577 4.10749 11.1832 2.95704L10.5709 1.47883ZM3.03131 7.66642C1.1853 10.4292 0.2 13.6773 0.2 17H1.8C1.8 13.9937 2.69146 11.055 4.36166 8.55533L3.03131 7.66642ZM1.8 49V17H0.2V49H1.8ZM17 48.2H1V49.8H17V48.2ZM16.2 33V49H17.8V33H16.2Z" fill="white"/>
<path d="M52.6665 17C55.831 17 58.9244 17.9384 61.5556 19.6965C64.1868 21.4546 66.2375 23.9535 67.4485 26.8771C68.6595 29.8007 68.9764 33.0178 68.359 36.1215C67.7417 39.2252 66.2178 42.0761 63.9802 44.3137C61.7425 46.5514 58.8916 48.0752 55.7879 48.6926C52.6842 49.3099 49.4672 48.9931 46.5436 47.7821C43.6199 46.5711 41.1211 44.5203 39.363 41.8891C37.6049 39.258 36.6665 36.1645 36.6665 33L52.6665 33L52.6665 17Z" fill="#1F658A" stroke="white" stroke-width="1.6"/>
<path d="M68.6665 17C68.6665 13.8355 67.7281 10.7421 65.97 8.11087C64.2119 5.47968 61.713 3.42893 58.7894 2.21793C55.8658 1.00693 52.6487 0.690072 49.545 1.30744C46.4414 1.9248 43.5904 3.44865 41.3528 5.68629C39.1152 7.92392 37.5913 10.7748 36.9739 13.8785C36.3566 16.9822 36.6734 20.1993 37.8844 23.1229C39.0954 26.0465 41.1462 28.5454 43.7774 30.3035C46.4086 32.0616 49.502 33 52.6665 33L52.6665 17H68.6665Z" fill="#38ADA9" stroke="white" stroke-width="1.6"/>
<circle cx="52.6667" cy="17" r="2" fill="white"/>
<circle cx="52.6667" cy="33" r="2" fill="white"/>
<path fill-rule="evenodd" clip-rule="evenodd" d="M17.8 18.8335C18.5062 18.5248 18.9998 17.82 18.9998 17C18.9998 15.8954 18.1043 15 16.9998 15C15.8952 15 14.9998 15.8954 14.9998 17C14.9998 17.8202 15.4935 18.5251 16.2 18.8337V33H17.8V18.8335Z" fill="white"/>
<path fill-rule="evenodd" clip-rule="evenodd" d="M88.2 48.98C86.3722 48.8885 84.5715 48.4839 82.8771 47.7821C80.9358 46.978 79.172 45.7994 77.6863 44.3137C76.2006 42.828 75.022 41.0641 74.2179 39.1229C73.4139 37.1817 73 35.1011 73 33L89 33V33H97V49H88.2V48.98Z" fill="#38ADA9"/>
<path d="M88.2 48.98H89V48.219L88.24 48.181L88.2 48.98ZM82.8771 47.7821L83.1832 47.043L83.1832 47.043L82.8771 47.7821ZM77.6863 44.3137L78.252 43.748L78.252 43.748L77.6863 44.3137ZM74.2179 39.1229L74.957 38.8168L74.957 38.8168L74.2179 39.1229ZM73 33L73 32.2L72.2 32.2V33H73ZM89 33H89.8V32.2L89 32.2L89 33ZM89 33H88.2V33.8H89V33ZM97 33H97.8V32.2H97V33ZM97 49V49.8H97.8V49H97ZM88.2 49H87.4V49.8H88.2V49ZM88.24 48.181C86.5036 48.094 84.7929 47.7097 83.1832 47.043L82.5709 48.5212C84.3501 49.2581 86.2408 49.6829 88.16 49.779L88.24 48.181ZM83.1832 47.043C81.3391 46.2791 79.6634 45.1595 78.252 43.748L77.1206 44.8794C78.6806 46.4394 80.5326 47.6769 82.5709 48.5212L83.1832 47.043ZM78.252 43.748C76.8405 42.3366 75.7209 40.6609 74.957 38.8168L73.4788 39.4291C74.3231 41.4673 75.5606 43.3194 77.1206 44.8794L78.252 43.748ZM74.957 38.8168C74.1932 36.9726 73.8 34.9961 73.8 33H72.2C72.2 35.2062 72.6345 37.3908 73.4788 39.4291L74.957 38.8168ZM73 33.8L89 33.8L89 32.2L73 32.2L73 33.8ZM88.2 33V33H89.8V33H88.2ZM89 33.8H97V32.2H89V33.8ZM96.2 33V49H97.8V33H96.2ZM97 48.2H88.2V49.8H97V48.2ZM89 49V48.98H87.4V49H89Z" fill="white"/>
<rect x="73" y="1" width="16" height="32" fill="#1F658A" stroke="white" stroke-width="1.6"/>
<circle cx="88.9998" cy="33" r="2" fill="white"/>
</svg>

<svg width="98" height="50" fill="none" xmlns="http://www.w3.org/2000/svg"><path d="M33 49L17.167 17.166 17 49h16z" fill="#38ADA9" stroke="#fff" stroke-width="1.6"/><path fill-rule="evenodd" clip-rule="evenodd" d="M17 33A16 16 0 101 17v32h16V33z" fill="#1F658A"/><path d="M17 33v-.8h-.8v.8h.8zm8.89-2.697l-.445-.665.444.665zm5.892-7.18l.74.306-.74-.306zm.91-9.245l.785-.155-.784.155zm-4.378-8.192l-.566.566.566-.566zM20.12 1.307l.157-.784-.157.784zm-9.244.91l.306.74-.306-.74zm-7.18 5.894l.665.444-.666-.444zM1 49H.2v.8H1V49zm16 0v.8h.8V49H17zm0-15.2a16.8 16.8 0 009.334-2.831l-.89-1.33A15.2 15.2 0 0117 32.2v1.6zm9.334-2.831a16.8 16.8 0 006.187-7.54l-1.478-.612a15.2 15.2 0 01-5.598 6.821l.889 1.33zm6.187-7.54a16.8 16.8 0 00.956-9.706l-1.57.312a15.2 15.2 0 01-.864 8.782l1.478.612zm.956-9.706A16.8 16.8 0 0028.88 5.12l-1.131 1.131a15.2 15.2 0 014.16 7.783l1.57-.313zM28.88 5.12A16.8 16.8 0 0020.277.523l-.312 1.57a15.2 15.2 0 017.783 4.159l1.131-1.131zM20.277.523a16.8 16.8 0 00-9.706.956l.612 1.478a15.2 15.2 0 018.782-.865l.313-1.57zm-9.706.956a16.8 16.8 0 00-7.54 6.187l1.33.89a15.2 15.2 0 016.822-5.599l-.612-1.478zM3.03 7.666A16.8 16.8 0 00.2 17h1.6a15.2 15.2 0 012.562-8.445l-1.33-.889zM1.8 49V17H.2v32h1.6zm15.2-.8H1v1.6h16v-1.6zM16.2 33v16h1.6V33h-1.6z" fill="#fff"/><path d="M52.666 17a16 16 0 11-16 16h16V17z" fill="#1F658A" stroke="#fff" stroke-width="1.6"/><path d="M68.666 17a16 16 0 10-16 16V17h16z" fill="#38ADA9" stroke="#fff" stroke-width="1.6"/><circle cx="52.667" cy="17" r="2" fill="#fff"/><circle cx="52.667" cy="33" r="2" fill="#fff"/><path fill-rule="evenodd" clip-rule="evenodd" d="M17.8 18.834a2 2 0 10-1.6 0V33h1.6V18.834z" fill="#fff"/><path fill-rule="evenodd" clip-rule="evenodd" d="M88.2 48.98A16.001 16.001 0 0173 33h24v16h-8.8v-.02z" fill="#38ADA9"/><path d="M88.2 48.98h.8v-.761l-.76-.038-.04.799zm-5.323-1.198l.306-.739-.306.74zm-5.19-3.468l.565-.566-.566.566zm-3.47-5.191l.74-.306-.74.306zM73 33v-.8h-.8v.8h.8zm16 0h.8v-.8H89v.8zm0 0h-.8v.8h.8V33zm8 0h.8v-.8H97v.8zm0 16v.8h.8V49H97zm-8.8 0h-.8v.8h.8V49zm.04-.819a15.204 15.204 0 01-5.057-1.138l-.612 1.478c1.78.737 3.67 1.162 5.589 1.258l.08-1.598zm-5.057-1.138a15.2 15.2 0 01-4.931-3.295l-1.131 1.131a16.8 16.8 0 005.45 3.642l.612-1.478zm-4.931-3.295a15.2 15.2 0 01-3.295-4.931l-1.478.612a16.801 16.801 0 003.642 5.45l1.131-1.131zm-3.295-4.931A15.202 15.202 0 0173.8 33h-1.6a16.8 16.8 0 001.279 6.43l1.478-.613zM73 33.8h16v-1.6H73v1.6zm15.2-.8h1.6-1.6zm.8.8h8v-1.6h-8v1.6zm7.2-.8v16h1.6V33h-1.6zm.8 15.2h-8.8v1.6H97v-1.6zm-8 .8v-.02h-1.6V49H89z" fill="#fff"/><path fill="#1F658A" stroke="#fff" stroke-width="1.6" d="M73 1h16v32H73z"/><circle cx="89" cy="33" r="2" fill="#fff"/></svg>
